X:78
T:Paddy Fahey's
R:Reel
S:Andy Dickson, Belfast (fiddle)
D:Private tape
N:As played
Z:Bernie Stocks
M:4/4
K:C
D2{F}ED d3B | cBAG E2{d}cB | AD{F}ED dcdB | {d}cBAG EA,CE |
DE{F}ED dcdB | cBAG E2{d}cB | ABcA Aded |1 cABG EDCE :|2 cAGE {G}EDA^c ||
K:G\
defg af{a}ge | cdef gece | defg azfa | ~g2eg ~f2df |
afdf afdf | {a}gece g2{a}fe | defg afbf | afeg fddg ||
K:D\
~f2de {afe}f2 {a}gf | eA{d}BA ~g2ae | fede fage | {a}fdec Addg |
~f2de {afe}f2 gf | eA{d}BA g2fg | afge fded | (3Bcd AG ED=CE || D4
